outputs/icons/device/ethernet_round.svg

<svg width="1200" height="1200" viewBox="0 0 1200 1200" fill="none" xmlns="http://www.w3.org/2000/svg"><g clip-path="url(#clip0_833_2190)"><path d="M364.625 314.688C345.125 295.188 313.625 295.188 294.125 314.688L64.625 544.19C45.125 563.69 45.125 595.19 64.625 614.69L294.125 844.19C313.625 863.69 345.125 863.69 364.625 844.19C384.125 824.69 384.125 793.19 364.625 773.69L170.625 579.19L364.625 385.188C383.625 365.688 383.625 333.688 364.625 314.688ZM793.625 314.688C774.125 334.188 774.125 365.688 793.625 385.188L987.625 579.19L793.625 773.19C774.125 792.69 774.125 824.19 793.625 843.69C813.125 863.19 844.625 863.19 864.125 843.69L1093.625 614.19C1113.125 594.69 1113.125 563.19 1093.625 543.69L864.125 314.188C845.125 295.188 813.125 295.188 793.625 314.688ZM379.125 629.19C406.625 629.19 429.125 606.69 429.125 579.19C429.125 551.69 406.625 529.19 379.125 529.19C351.625 529.19 329.125 551.69 329.125 579.19C329.125 606.69 351.625 629.19 379.125 629.19ZM579.125 629.19C606.625 629.19 629.125 606.69 629.125 579.19C629.125 551.69 606.625 529.19 579.125 529.19C551.625 529.19 529.125 551.69 529.125 579.19C529.125 606.69 551.625 629.19 579.125 629.19ZM779.125 529.19C751.625 529.19 729.125 551.69 729.125 579.19C729.125 606.69 751.625 629.19 779.125 629.19C806.625 629.19 829.125 606.69 829.125 579.19C829.125 551.69 806.625 529.19 779.125 529.19Z" fill="#1D1E23"/></g><defs><clipPath id="clip0_833_2190"><path width="24" fill="white" d="M0 0H1200V1200H0V0z"/></clipPath></defs></svg>

<svg xmlns="http://www.w3.org/2000/svg" width="1200" height="1200" fill="none"><g clip-path="url(#a)"><path fill="#000" d="M364.625 314.688c-19.5-19.5-51-19.5-70.5 0L64.625 544.19c-19.5 19.5-19.5 51 0 70.5l229.5 229.5c19.5 19.5 51 19.5 70.5 0s19.5-51 0-70.5l-194-194.5 194-194.002c19-19.5 19-51.5 0-70.5m429 0c-19.5 19.5-19.5 51 0 70.5l194 194.002-194 194c-19.5 19.5-19.5 51 0 70.5s51 19.5 70.5 0l229.5-229.5c19.5-19.5 19.5-51 0-70.5l-229.5-229.502c-19-19-51-19-70.5.5m-414.5 314.502c27.5 0 50-22.5 50-50s-22.5-50-50-50-50 22.5-50 50 22.5 50 50 50m200 0c27.5 0 50-22.5 50-50s-22.5-50-50-50-50 22.5-50 50 22.5 50 50 50m200-100c-27.5 0-50 22.5-50 50s22.5 50 50 50 50-22.5 50-50-22.5-50-50-50"/></g><defs><clipPath id="a"><path fill="#fff" d="M0 0h1200v1200H0z"/></clipPath></defs></svg>
